src/assets/icons/rating-star.svg

<svg width="24" height="24" viewBox="0 0 24 24" fill="none" xmlns="http://www.w3.org/2000/svg">
<path d="M20.9694 9.78187C20.8879 9.43957 20.6433 9.26842 20.3171 9.18284L15.0985 8.41266L12.7339 3.44927C12.4892 2.85024 11.5108 2.85024 11.2661 3.44927L8.90147 8.32709L3.76444 9.18284C3.43828 9.18284 3.19366 9.43957 3.03058 9.78187C2.94904 10.1242 3.03058 10.4665 3.2752 10.6376L7.02605 14.4885L6.12911 19.9654C6.04756 20.3077 6.21065 20.65 6.45527 20.8211C6.69989 20.9923 7.02605 21.0779 7.35221 20.9067L12 18.3394L16.6478 20.9067C16.8109 20.9067 16.8924 20.9067 17.0555 20.9067C17.2186 20.9067 17.3817 20.8211 17.5447 20.7356C17.7894 20.5644 17.9524 20.2221 17.8709 19.8798L16.974 14.403L20.7248 10.5521C20.9694 10.3809 21.051 10.0386 20.9694 9.78187Z" fill="#0E286A"/>
</svg>

<svg xmlns="http://www.w3.org/2000/svg" width="24" height="24" fill="none" viewBox="0 0 24 24">
  <path fill="#0E286A" d="M20.97 9.782c-.082-.342-.327-.514-.653-.6l-5.219-.77-2.364-4.963c-.245-.599-1.223-.599-1.468 0L8.901 8.327l-5.137.856c-.326 0-.57.257-.733.599-.082.342 0 .684.244.856l3.751 3.85-.897 5.477a.832.832 0 0 0 .326.856c.245.171.571.257.897.086L12 18.339l4.648 2.568h.407c.164 0 .327-.086.49-.171a.832.832 0 0 0 .326-.856l-.897-5.477 3.75-3.85c.245-.172.327-.514.245-.771Z"/>
</svg>
